!!!OTL: Maedchen als Stallknecht
!!!OTL-incipit:Hier treten wir her mit unserm Stern,
!!!ARE: Europa, Mitteleuropa, Deutschland (BRD), Schleswig
!!!YOR: 5, S. 127
!!    1897 gedruckt in Leipzig
!!!SCT: Q1100J
!!!TXL: @@DE
!!!YEM: Copyright 1995, estate of Helmut Schaffrath.
**kern	**text
*ICvox	*
*M3/4	*
*k[f#]	*
*G:	*
!LO:TX:a:t=Schleswig. Böhme. Kdl.. S. 377f.	!
{4d	Hier
=1	=1
4g	tre-
4g	-ten
4f#	wir
=2	=2
2g	her
4g	mit
=3	=3
(4g	un-
4b)	.
4a	-serm
=4	=4
2g}	Stern,
{(8aL	ein'
8bJ)	.
=5	=5
(4.cc	gu-
8a)	.
(8ddL	-ten
8ccJ)	.
=6	=6
(4.b	A-
8a)	.
4g	-bend
=7	=7
4.a	hät-
8g	-ten
4f#	wir
=8	=8
2g}	gern.
{(8aL	ein'
8bJ)	.
=9	=9
(4.cc	gu-
8a)	.
(8ddL	-ten
8ccJ)	.
=10	=10
(4.b	A-
8a)	.
4g	-bend
=11	=11
4.a	hät-
8g	-ten
4f#	wir
=12	=12
2g}	gern.
==	==
!!!AGN: Ansinge- , Dreikoenigs - Lied
!! Melodievariante zu Q0100, anderes Lied.
!!!ONB: ESAC (Essen Associative Code) Database: BALLADE
!!!AMT: simple triple
!!!AIN: vox
!!!EED: Helmut Schaffrath
!!!EEV: 1.0
!!!source: Deutsche Volkslieder mit ihren Melodien Balladen. Herausgegeben vom Deutschen Volksliedarchiv. Fünfter Teil. Freiburg/Breisgau 1965.
!!!page: 127
!!!ENC: Anna Maria Matuszewska
!!!EEV: 2025/02/28
*-	*-
